X:15
T:Drunken Gauger, The
R:set dance
Z:id:hn-setdance-15
M:6/8
L:1/8
K:G
D|GAB c2A|BAG AGE|GBd g2e|dBe dBG|
c2A BdB|AGA BGE|DEG AGA|BGG G2:|
|:D|GBd g2e|dBe dBG|Ace a2a|agb age|
dBd g2e|dBe dBG|c2A BdB|AGA BGE|
GAB c2A|BAG AGE|GBd g2e|dBe dBG|
c2A BdB|AGA AGE|DEG AGA|BGG G2:|
<end>
<start>
